X:1

T:Battle of Aughrim, The [2]

M:2/4

L:1/16

S:Walker's Historical Memoirs of the Irish Bards, London 1786

Z:Paul Kinder

R:March

K:G

"Moderato"ABAG ABAE|ABAG ABAE|ABAG ABAE|ABAG ABAE|!

(3AGA (3AGA (3AGA A>E|(3AGA (3AGA (3AGA A>E|

(3AGA (3AGA (3AGA A>E|{CDEGA}B3c d3e|!

d2e2 d2f2|d2e2 d2f2|d2e2 d2e2|d8|!

cBAG E4|ABAG ABAE|ABAG ABAE|ABAG A3E|!

(3AGA (3AGA (3AGA A>E|(3AGA (3AGA (3AGA A>E|!

GABc d3e|d2e2 d2f2|d2e2 d4|BAGF E4||

 

BATTLE OF AUGHRIM [3], THE. AKA and see “The Return from Fingal.” Irish, March (4/4 time). D Major. Standard tuning. AABB. Vallely (Learn to Play the Fiddle with Armagh Pipers Club), 197?; pg. 24.

